client/public/icons/weather/landslides.svg

<?xml version="1.0" encoding="UTF-8" standalone="no"?>
<svg
   xmlns:ns0="http://ns.adobe.com/SaveForWeb/1.0/"
   xmlns:ns="http://ns.adobe.com/Variables/1.0/"
   xmlns:i="http://ns.adobe.com/AdobeIllustrator/10.0/"
   xmlns:x="adobe:ns:meta/"
   xmlns:dc="http://purl.org/dc/elements/1.1/"
   xmlns:cc="http://creativecommons.org/ns#"
   xmlns:rdf="http://www.w3.org/1999/02/22-rdf-syntax-ns#"
   xmlns:svg="http://www.w3.org/2000/svg"
   xmlns="http://www.w3.org/2000/svg"
   xmlns:sodipodi="http://sodipodi.sourceforge.net/DTD/sodipodi-0.dtd"
   xmlns:inkscape="http://www.inkscape.org/namespaces/inkscape"
   i:viewOrigin="5.3584 94.6416"
   i:rulerOrigin="0 0"
   i:pageBounds="0 100 100 0"
   viewBox="0 0 89.939006 90.097998"
   overflow="visible"
   enable-background="new 0 0 90.283 90.283"
   xml:space="preserve"
   x="0px"
   y="0px"
   version="1.1"
   id="svg34"
   sodipodi:docname="landslides.svg"
   width="89.939003"
   height="90.098"
   style="overflow:visible"
   inkscape:version="0.92.3 (2405546, 2018-03-11)"><defs
     id="defs38" /><sodipodi:namedview
     pagecolor="#ffffff"
     bordercolor="#666666"
     borderopacity="1"
     objecttolerance="10"
     gridtolerance="10"
     guidetolerance="10"
     inkscape:pageopacity="0"
     inkscape:pageshadow="2"
     inkscape:window-width="3000"
     inkscape:window-height="1955"
     id="namedview36"
     showgrid="false"
     fit-margin-top="0"
     fit-margin-left="0"
     fit-margin-right="0"
     fit-margin-bottom="0"
     inkscape:zoom="2.0912021"
     inkscape:cx="-69.868029"
     inkscape:cy="33.706124"
     inkscape:window-x="-13"
     inkscape:window-y="-13"
     inkscape:window-maximized="1"
     inkscape:current-layer="svg34" /><metadata
     id="metadata2"><ns:variableSets><ns:variableSet
         varSetName="binding1"
         locked="none"><ns:variables /><ns:sampleDataSets /></ns:variableSet></ns:variableSets><ns0:sfw><ns0:slices /><ns0:sliceSourceBounds
         y="4.358"
         x="5.358"
         width="90.283"
         height="90.283"
         bottomLeftOrigin="true" /></ns0:sfw><x:xmpmeta
       x:xmptk="XMP toolkit 3.0-29, framework 1.6" /><x:xmpmeta
       x:xmptk="XMP toolkit 3.0-29, framework 1.6" /><x:xmpmeta
       x:xmptk="XMP toolkit 3.0-29, framework 1.6" /><x:xmpmeta
       x:xmptk="XMP toolkit 3.0-29, framework 1.6" /><x:xmpmeta
       x:xmptk="XMP toolkit 3.0-29, framework 1.6" /><?xpacket begin='&#65279;' id='W5M0MpCehiHzreSzNTczkc9d'?><x:xmpmeta
       x:xmptk="XMP toolkit 3.0-29, framework 1.6" /><?xpacket end='w'?><rdf:RDF><cc:Work
         rdf:about=""><dc:format>image/svg+xml</dc:format><dc:type
           rdf:resource="http://purl.org/dc/dcmitype/StillImage" /><dc:title></dc:title></cc:Work></rdf:RDF></metadata><switch
     id="switch28"
     transform="translate(-0.243,-0.035)"><foreignObject
       requiredExtensions="http://ns.adobe.com/AdobeIllustrator/10.0/"
       x="0"
       y="0"
       width="1"
       height="1" /><g
       i:extraneous="self"
       id="g26"><g
         i:layer="yes"
         i:visible="no"
         i:editable="no"
         i:dimmedPercent="50"
         i:rgbTrio="#4F008000FFFF"
         display="none"
         id="g6"
         style="display:none"><rect
           x="0.142"
           y="0.142"
           i:knockout="Off"
           display="inline"
           width="90"
           height="90"
           id="rect4"
           style="display:inline;fill:none;stroke:#000000;stroke-width:0.28349999" /></g><g
         i:layer="yes"
         i:dimmedPercent="3"
         i:rgbTrio="#4F00FFFF4F00"
         id="g24"><path
           i:knockout="Off"
           d="m 65.791,50.559 c 2.512,-1.396 3.164,-0.334 3.896,0.906 0.743,1.249 0.967,2.759 -0.638,3.646 -1.459,0.804 -3.009,0.296 -4.121,-0.686 -1.41,-1.246 -1.178,-2.735 0.863,-3.866 z"
           id="path8"
           inkscape:connector-curvature="0" /><path
           i:knockout="Off"
           d="m 79.544,61.466 c 2.647,1.95 2.149,3.065 0.933,4.549 -1.663,2.04 -3.139,0.66 -4.137,-0.074 -1.002,-0.731 -2.684,-2.18 -1.729,-3.842 0.953,-1.666 3.046,-2.027 4.933,-0.633 z"
           id="path10"
           inkscape:connector-curvature="0" /><path
           i:knockout="Off"
           d="m 81.549,53.685 c 0.411,-2.536 -0.882,-3.256 -2.856,-3.549 -1.989,-0.304 -4.152,0.35 -4.662,1.498 -0.556,1.253 1.631,2.699 3.475,3.394 2.352,0.872 3.707,0.717 4.043,-1.343 z"
           id="path12"
           inkscape:connector-curvature="0" /><path
           i:knockout="Off"
           d="m 59.022,50.49 c 1.334,0.085 1.445,1.904 0.879,3.087 -0.57,1.183 -2.149,0.896 -2.813,0.484 -0.664,-0.412 -1.634,-1.453 -1.068,-2.635 0.57,-1.193 1.533,-1.033 3.002,-0.936 z"
           id="path14"
           inkscape:connector-curvature="0" /><path
           i:knockout="Off"
           d="m 48.307,54.091 c -0.053,-0.994 0.733,-1.399 1.908,-1.537 1.171,-0.138 1.71,0.857 1.716,1.385 0.006,0.528 -0.319,1.467 -1.49,1.603 -1.184,0.138 -2.084,-0.456 -2.134,-1.451 z"
           id="path16"
           inkscape:connector-curvature="0" /><polygon
           i:knockout="Off"
           points="74.078,27.587 55.081,12.177 52.632,15.199 71.73,30.691 69.481,33.662 79.099,34.166 76.429,24.481 "
           id="polygon18" /><path
           i:knockout="Off"
           d="M 59.751,59.483 C 58.382,59.784 50.989,61.766 36.543,58.12 30.076,56.075 23.189,51.163 20.834,42.831 16.047,25.897 15.011,16.337 14.584,14.133 L 0.296,0.035 0.243,90.133 h 89.939 z"
           id="path20"
           inkscape:connector-curvature="0" /><path
           i:knockout="Off"
           d="M 42.826,50.926 C 52.966,45.075 60.389,47.567 59.648,46.985 44.903,35.376 18.195,13.736 18.195,13.736 c 0,0 3.535,10.219 9.938,25.347 3.021,7.142 9.894,12.074 14.693,11.843 z"
           id="path22"
           inkscape:connector-curvature="0" /></g></g></switch></svg>

<svg xmlns:x="http://ns.adobe.com/Extensibility/1.0/" xmlns:i="http://ns.adobe.com/AdobeIllustrator/10.0/" xmlns:graph="http://ns.adobe.com/Graphs/1.0/" xmlns="http://www.w3.org/2000/svg" xmlns:xlink="http://www.w3.org/1999/xlink" xmlns:a="http://ns.adobe.com/AdobeSVGViewerExtensions/3.0/" i:viewOrigin="5.3584 94.6416" i:rulerOrigin="0 0" i:pageBounds="0 100 100 0" viewBox="0 0 90.283 112.85375" overflow="visible" enable-background="new 0 0 90.283 90.283" xml:space="preserve" x="0px" y="0px"><metadata><variableSets xmlns="http://ns.adobe.com/Variables/1.0/"><variableSet varSetName="binding1" locked="none"><variables/><v:sampleDataSets xmlns="http://ns.adobe.com/GenericCustomNamespace/1.0/" xmlns:v="http://ns.adobe.com/Variables/1.0/"/></variableSet></variableSets><sfw xmlns="http://ns.adobe.com/SaveForWeb/1.0/"><slices/><sliceSourceBounds y="4.358" x="5.358" width="90.283" height="90.283" bottomLeftOrigin="true"/></sfw><x:xmpmeta xmlns:x="adobe:ns:meta/" x:xmptk="XMP toolkit 3.0-29, framework 1.6"/><x:xmpmeta xmlns:x="adobe:ns:meta/" x:xmptk="XMP toolkit 3.0-29, framework 1.6"/><x:xmpmeta xmlns:x="adobe:ns:meta/" x:xmptk="XMP toolkit 3.0-29, framework 1.6"/><x:xmpmeta xmlns:x="adobe:ns:meta/" x:xmptk="XMP toolkit 3.0-29, framework 1.6"/><x:xmpmeta xmlns:x="adobe:ns:meta/" x:xmptk="XMP toolkit 3.0-29, framework 1.6"/><?xpacket begin='&#65279;' id='W5M0MpCehiHzreSzNTczkc9d'?><x:xmpmeta xmlns:x="adobe:ns:meta/" x:xmptk="XMP toolkit 3.0-29, framework 1.6"/><?xpacket end='w'?></metadata><switch><foreignObject requiredExtensions="http://ns.adobe.com/AdobeIllustrator/10.0/" x="0" y="0" width="1" height="1"/><g i:extraneous="self"><g i:layer="yes" i:visible="no" i:editable="no" i:dimmedPercent="50" i:rgbTrio="#4F008000FFFF" display="none"><rect x="0.142" y="0.142" i:knockout="Off" display="inline" fill="none" stroke="#000000" stroke-width="0.2835" width="90" height="90"/></g><g i:layer="yes" i:dimmedPercent="3" i:rgbTrio="#4F00FFFF4F00"><path i:knockout="Off" d="M65.791,50.559c2.512-1.396,3.164-0.334,3.896,0.906c0.743,1.249,0.967,2.759-0.638,3.646       c-1.459,0.804-3.009,0.296-4.121-0.686C63.518,53.179,63.75,51.69,65.791,50.559z"/><path i:knockout="Off" d="M79.544,61.466c2.647,1.95,2.149,3.065,0.933,4.549c-1.663,2.04-3.139,0.66-4.137-0.074       c-1.002-0.731-2.684-2.18-1.729-3.842C75.564,60.433,77.657,60.072,79.544,61.466z"/><path i:knockout="Off" d="M81.549,53.685c0.411-2.536-0.882-3.256-2.856-3.549c-1.989-0.304-4.152,0.35-4.662,1.498       c-0.556,1.253,1.631,2.699,3.475,3.394C79.858,55.9,81.213,55.745,81.549,53.685z"/><path i:knockout="Off" d="M59.022,50.49c1.334,0.085,1.445,1.904,0.879,3.087c-0.57,1.183-2.149,0.896-2.813,0.484       c-0.664-0.412-1.634-1.453-1.068-2.635C56.59,50.233,57.553,50.393,59.022,50.49z"/><path i:knockout="Off" d="M48.307,54.091c-0.053-0.994,0.733-1.399,1.908-1.537c1.171-0.138,1.71,0.857,1.716,1.385       s-0.319,1.467-1.49,1.603C49.257,55.68,48.357,55.086,48.307,54.091z"/><polygon i:knockout="Off" points="79.099,34.166 76.429,24.481 74.078,27.587 55.081,12.177 52.632,15.199 71.73,30.691        69.481,33.662 "/><path i:knockout="Off" d="M59.751,59.483c-1.369,0.301-8.762,2.283-23.208-1.363c-6.467-2.045-13.354-6.957-15.709-15.289       c-4.787-16.934-5.823-26.494-6.25-28.698L0.296,0.035L0.243,90.133h89.939L59.751,59.483z"/><path i:knockout="Off" d="M42.826,50.926c10.14-5.851,17.563-3.359,16.822-3.941C44.903,35.376,18.195,13.736,18.195,13.736       s3.535,10.219,9.938,25.347C31.154,46.225,38.027,51.157,42.826,50.926z"/></g></g></switch><text x="0" y="105.283" fill="#000000" font-size="5px" font-weight="bold" font-family="'Helvetica Neue', Helvetica, Arial-Unicode, Arial, Sans-serif">Created by Hayashi Fumihiro</text><text x="0" y="110.283" fill="#000000" font-size="5px" font-weight="bold" font-family="'Helvetica Neue', Helvetica, Arial-Unicode, Arial, Sans-serif">from the Noun Project</text></svg>
